src/main/resources/icons/AllIcons/runConfigurations/rerunFailedTests.svg

<!-- Copyright 2000-2021 JetBrains s.r.o. Use of this source code is governed by the Apache 2.0 license that can be found in the LICENSE file. -->
<svg xmlns="http://www.w3.org/2000/svg" width="16" height="16" viewBox="0 0 16 16">
  <g fill="none" fill-rule="evenodd">
    <path fill="#DB5860" d="M6.95490402,12.1750686 L8.99825652,10.7155311 L8.99825652,11.0024907 L10.9987547,11.0024907 L10.9987547,9.00199255 L8.99825652,9.00199255 L8.99825652,9.28446894 L4.11764734,5.79831953 C4.67482101,3.06038204 7.0960493,1 9.99850559,1 C13.3130394,1 16,3.68696057 16,7.00149441 C16,10.3160283 13.3130394,13.0029888 9.99850559,13.0029888 C8.88763605,13.0029888 7.84725945,12.7011727 6.95490402,12.1750686 Z M8.99825652,3.00049814 L8.99825652,7.00149441 L10.9987547,7.00149441 L10.9987547,3.00049814 L8.99825652,3.00049814 Z"/>
    <polygon fill="#59A869" points="1 5 8 10 1 15"/>
  </g>
</svg>

<svg xmlns="http://www.w3.org/2000/svg" width="16" height="16" viewBox="0 0 16 16"><rect id="frame" width="16" height="16" fill="none"/><g fill="none" fill-rule="evenodd"><path fill="#DB5860" d="M6.955 12.175l2.043-1.46v.287h2v-2h-2v.282l-4.88-3.486a6.001 6.001 0 1 1 2.837 6.377zM8.998 3v4.001h2v-4h-2z"/><path fill="#59A869" d="M1 5l7 5-7 5z"/></g></svg>
